X: 6538
T: Cath Chéim An Fhia
R: reel
M: 4/4
K: Dmajor
z6 A3/2F/2|D<D E3/2E/2 DD2E|F3/2G/2 Bc ed2B/2B/2|A3/2B<FF/2 EE2F|
A2 BF AB/2A<FE/2|DF E3/2D/2 DD2E|F3/2A/2 Bc ed2B|AB F3/2E/2 FF2E|
D2 D3/2D/2 D3A|(3ABc d3/2B<cd<ef/2|d3/2B<cA< (3Bcd e3/2c<|d3/2B<cA<BB/2 c/2B/2A/2F/2|
AB ce d2 z2|F3/2 D<ED/2 D<D DE|F3/2A/2 Bc ed2B|AB F3/2E/2 FF2E|
D2 D3/2D/2 D4|

